!!!COM: Palestrina, Giovanni Perluigi da
!!!OPR: In te Domine speravi (1599)
!!!OTL: Benedictus
**kern	**kern	**kern	**kern
*Itenor	*Icalto	*Icant	*Icant
!Tenor	!Altus	!Cantus 2	!Cantus 1
*clefGv2	*clefG2	*clefG2	*clefG2
*k[]	*k[]	*k[]	*k[]
*C:ion	*C:ion	*C:ion	*C:ion
*M4/2	*M4/2	*M4/2	*M4/2
=1	=1	=1	=1
0r	1.f	0r	0r
.	2f	.	.
=2	=2	=2	=2
0r	1f	0r	0r
.	2e	.	.
.	2d	.	.
=3	=3	=3	=3
0r	1f	1.cc	0r
.	1c	.	.
.	.	2cc	.
=4	=4	=4	=4
0r	2r	1cc	0r
.	2c	.	.
.	2d	2b	.
.	[2f	2a	.
=5	=5	=5	=5
1.c	2f]	1cc	0r
.	4e	.	.
.	4d	.	.
.	2.e	1g	.
2c	.	.	.
.	4d	.	.
=6	=6	=6	=6
1c	4e	2r	0r
.	4f	.	.
.	1g	2cc	.
2B	.	2dd	.
2A	2a	[2ff	.
=7	=7	=7	=7
1c	2g	4ff]	0r
.	.	4ee	.
.	1cc	4ee	.
.	.	8dd	.
.	.	8cc	.
1G	.	1dd	.
.	2b	.	.
=8	=8	=8	=8
0r	2.a	4ee	1.cc
.	.	4dd	.
.	.	4cc	.
.	4g	4b	.
.	4f	4a	.
.	4e	4g	.
.	[2f	2a	2cc
=9	=9	=9	=9
1c	2f]	1g	1cc
.	2e	.	.
2d	1d	1r	2b
[2f	.	.	2a
=10	=10	=10	=10
2f]	0c	1r	1cc
4e	.	.	.
4d	.	.	.
4e	.	2r	1g
4f	.	.	.
4g	.	2g	.
4e	.	.	.
=11	=11	=11	=11
2f	0r	2a	1cc
2e	.	1cc	.
1d	.	.	2dd
.	.	2b	[2ff
=12	=12	=12	=12
1c	1.g	2.cc	4ff]
.	.	.	4ee
.	.	.	4ee
.	.	8b	8dd
.	.	8a	8cc
1r	.	2b	2dd
.	2g	2ee	[2cc
=13	=13	=13	=13
1G	1g	1dd	2cc]
.	.	.	2b
2A	2f	1r	2a
[2c	2e	.	[2g
=14	=14	=14	=14
2c]	1g	1r	4g]
.	.	.	4a
4B	.	.	4b
4A	.	.	4cc
4B	1d	2r	4dd
4c	.	.	4ee
4d	.	2dd	2ff
4B	.	.	.
=15	=15	=15	=15
2c	1g	2ee	2ee
2B	.	1gg	2dd
1A	2a	.	1cc
.	[2cc	2ff	.
=16	=16	=16	=16
1G	2cc]	2ee	0r
.	4b	4dd	.
.	4a	4cc	.
2r	2b	2dd	.
4c	[2cc	2ee	.
4d	.	.	.
=17	=17	=17	=17
4e	2cc]	1gg	1r
4f	.	.	.
4g	2b	.	.
4e	.	.	.
2f	2a	1r	2.cc
[2e	4g	.	.
.	4f	.	4dd
=18	=18	=18	=18
4e]	1g	1r	4ee
4d	.	.	4ff
4e	.	.	4gg
4c	.	.	4ee
2d	1r	2r	2ff
2c	.	4cc	[2ee
.	.	4dd	.
=19	=19	=19	=19
1c	0r	4ee	4ee]
.	.	4ff	4dd
.	.	4gg	4ee
.	.	4ee	4cc
1r	.	2ff	2dd
.	.	[2ee	[2cc
=20	=20	=20	=20
0r	1r	4ee]	4cc]
.	.	4dd	4b
.	.	4ee	4cc
.	.	4cc	4a
.	2r	2dd	2b
.	4f	[2cc	4a
.	4g	.	4b
=21	=21	=21	=21
0r	4a	4cc]	4cc
.	4b	4b	4dd
.	4cc	2a	4ee
.	4a	.	4cc
.	2b-	2g	2dd
.	[2a	2cc	2ee
=22	=22	=22	=22
0r	4a]	2.ee	4a
.	4g	.	4b
.	4a	.	1cc
.	4f	4ff	.
.	1g	1dd	.
.	.	.	2b
=23	=23	=23	=23
2r	1c	2cc	2cc
4c	.	2.ee	2cc
4d	.	.	.
4e	1r	.	4b
4f	.	4dd	4a
4g	.	4ee	4b
4e	.	4cc	4g
=24	=24	=24	=24
2f	2r	2dd	4a
.	.	.	4b
2.e	4c	2ee	2.cc
.	4d	.	.
.	4e	1ee	.
4d	4f	.	4b
4e	4g	.	4cc
4c	4e	.	4a
=25	=25	=25	=25
2d	2f	1r	2b
4c	2.e	.	2cc
4d	.	.	.
4e	.	2r	1g
4f	4d	.	.
4g	4e	2g	.
4e	4c	.	.
=26	=26	=26	=26
4f	4d	2dd	2r
4g	4e	.	.
2.a	2f	2cc	2a
.	2e	1ee	2b
4g	.	.	.
2g	2c	.	2cc
=27	=27	=27	=27
4f	1d	2dd	1a
4g	.	.	.
4a	.	2ff	.
4f	.	.	.
1g	1G	2ee	2r
.	.	4dd	2g
.	.	4cc	.
=28	=28	=28	=28
0r	1r	2b	2dd
.	.	2a	2cc
.	2r	1cc	1ee
.	2c	.	.
=29	=29	=29	=29
0r	2g	2b	2dd
.	2f	2a	2ff
.	1a	2cc	2.ee
.	.	2cc	.
.	.	.	8dd
.	.	.	8cc
=30	=30	=30	=30
0r	2g	2.dd	2b
.	2b-	.	2.dd
.	.	4ee	.
.	1a	4ff	.
.	.	4ee	4cc
.	.	4ee	[2cc
.	.	8dd	.
.	.	8cc	.
=31	=31	=31	=31
1G	1g	2dd	2cc]
.	.	2g	2b
2d	2f	2a	1a
2c	2a	2cc	.
=32	=32	=32	=32
1e	2.g	2.b	2r
.	.	.	2g
.	4e	8a	.
.	.	8g	.
2d	4f	1a	2dd
.	4g	.	.
2f	[2a	.	2cc
=33	=33	=33	=33
2e	4a]	2.cc	1ee
.	4g	.	.
2c	2.g	.	.
.	.	4b	.
2.d	.	2a	[1dd
.	8f#	.	.
.	8e	.	.
.	2f#	2a	.
4c	.	.	.
=34	=34	=34	=34
2B	2g	0g	2dd]
2c	2e	.	2cc
[1G	1d	.	2b
.	.	.	2g
=35	=35	=35	=35
1G]	0r	2r	2.dd
.	.	2g	.
.	.	.	4cc
1r	.	2dd	2b
.	.	2cc	2a
=36	=36	=36	=36
0r	1c	1ee	2cc
.	.	.	4g
.	.	.	4a
.	2g	2dd	4b
.	.	.	4cc
.	2f	2ff	[2dd
=37	=37	=37	=37
1r	1a	2ee	4dd]
.	.	.	4cc
.	.	4dd	1cc
.	.	4cc	.
1G	1g	1dd	.
.	.	.	2b
=38	=38	=38	=38
2d	2f	2r	1a
2c	2.e	2cc	.
1e	.	2.b	2r
.	4f	.	.
.	4g	.	2g
.	4e	4g	.
=39	=39	=39	=39
2d	2f	1a	2dd
2f	2a	.	2cc
2.e	2a	1b	[1ee
.	2g	.	.
4d	.	.	.
=40	=40	=40	=40
1c	2a	1cc	1ee]
.	1g	.	.
[1d	.	2b	[1dd
.	4f#	4a	.
.	4e	4g	.
=41	=41	=41	=41
1d]	2f#	2a	1dd]
.	1g	2b	.
1d	.	1a	1dd
.	2f#	.	.
=42	=42	=42	=42
0G	0g	0b	0dd
==	==	==	==
*-	*-	*-	*-
!!!CDT: 1525/^1526/-1594/2/2
!!!OCY: Italia
!!!AGN: Mass (Parody)
!!!AST: renaissance, vocal
!!!ASW: Motet 1532 (Lupus Hellinck)
!!!PWK: Masses, Book 9
!!!RNB: Cadence finals: G,D
!!!YOR: Le Opere Complete, v. 25, p. 131
!!!YOO: Rome, Italy: Fratelli Scalera
!!!END: 1992//
!!!EED: John Miller
!!!YEC: Copyright 2000, John Miller
!!!YEN: United States of America
!!!YEM: Rights to all derivative electronic formats reserved.
!!!YEM: Refer to licensing agreement for further details.
!!!YEM: This file must be accompanied by the licensing agreement.
!!!YEM: A copy of the licensing agreement may be found at http://www.music-cog.ohio-state.edu/HumdrumDatabases/Palestrina/license.txt
!!!EMD: converted to Humdrum by Bret Aarden
